src/lib/packages/icons/src/assets/filled/phone-outgoing.svg

<svg width="24" height="24" viewBox="0 0 24 24" fill="none" xmlns="http://www.w3.org/2000/svg">
<path d="M17.6249 14.174L20.268 15.75C20.814 16.076 21.0959 16.71 20.9709 17.334C20.4599 19.893 17.89 21.533 15.373 20.842C9.43395 19.212 4.79484 14.587 3.15884 8.635C2.46684 6.117 4.10495 3.54498 6.66495 3.03298L6.68179 3.02999C7.30679 2.90499 7.94395 3.18799 8.26895 3.73699L9.83194 6.376C10.3879 7.314 10.1118 8.52398 9.20279 9.12798L7.5419 10.233C8.7139 13.04 10.9538 15.289 13.7528 16.459L14.8678 14.794C15.4768 13.887 16.6869 13.615 17.6249 14.174ZM20.6918 3.713C20.6158 3.53 20.4698 3.38399 20.2858 3.30699C20.1938 3.26899 20.0969 3.24898 19.9989 3.24898H16.6659C16.2519 3.24898 15.9159 3.58498 15.9159 3.99898C15.9159 4.41298 16.2519 4.74898 16.6659 4.74898H18.1879L14.4679 8.46898C14.1749 8.76198 14.1749 9.23699 14.4679 9.52999C14.6139 9.67599 14.806 9.74999 14.998 9.74999C15.19 9.74999 15.382 9.67699 15.528 9.52999L19.248 5.80999V7.333C19.248 7.747 19.584 8.083 19.998 8.083C20.412 8.083 20.748 7.747 20.748 7.333V3.99999C20.75 3.90199 20.7298 3.805 20.6918 3.713Z" fill="currentColor"/>
</svg>

<svg xmlns="http://www.w3.org/2000/svg" width="24" height="24" fill="none"><path fill="currentColor" d="m17.625 14.174 2.643 1.576c.546.326.828.96.703 1.584-.511 2.559-3.081 4.199-5.598 3.508A17.442 17.442 0 0 1 3.159 8.635c-.692-2.518.946-5.09 3.506-5.602l.017-.003a1.502 1.502 0 0 1 1.587.707l1.563 2.639a2.05 2.05 0 0 1-.63 2.752l-1.66 1.105a11.602 11.602 0 0 0 6.21 6.226l1.116-1.665a2.053 2.053 0 0 1 2.757-.62Zm3.067-10.461a.755.755 0 0 0-.693-.464h-3.333a.75.75 0 0 0 0 1.5h1.522l-3.72 3.72a.75.75 0 0 0 1.06 1.061l3.72-3.72v1.523a.75.75 0 0 0 1.5 0V4a.713.713 0 0 0-.056-.287Z"/></svg>
